symbols/web/vertical_align_bottom/materialsymbolsoutlined/vertical_align_bottom_wght700gradN25_24px.svg

<svg xmlns="http://www.w3.org/2000/svg" height="24" width="24"><path d="M3.6 21.75v-3.025h16.825v3.025Zm8.4-4.9-5.675-5.675 2.15-2.1L10.5 11.1V2.225h3.025V11.1l2.025-2.025 2.1 2.125Z"/></svg>

<svg xmlns="http://www.w3.org/2000/svg" height="24" width="24"><path d="M3.6 21.75V18.725H20.425V21.75ZM12 16.85 6.325 11.175 8.475 9.075 10.5 11.1V2.225H13.525V11.1L15.55 9.075L17.65 11.2Z"/></svg>
